packages/core/src/svgs/catheon.svg

<svg width="24" height="24" viewBox="0 0 24 24" fill="none" xmlns="http://www.w3.org/2000/svg">
<g clip-path="url(#clip0_31_7816)">
<path d="M0 0H24V24H0V0Z" fill="#F0F3FA"/>
<path d="M10.5213 14.5715C9.7756 14.5715 9.71988 13.8601 9.78417 13.5001L8.85845 13.1915L8.12988 14.8715L8.57131 16.1015L10.787 18.4973L11.657 18.7544C11.7856 18.7887 12.1285 18.8573 12.4285 18.8573C16.007 18.8573 17.1556 16.6587 17.1385 15.4887C17.1385 15.4158 17.1299 15.3473 17.1213 15.283C16.7656 12.9687 15.0427 12.8573 14.6056 12.8573C14.22 12.8467 13.8386 12.9384 13.4999 13.123C11.057 14.2887 10.697 14.5715 10.5213 14.5715Z" fill="url(#paint0_linear_31_7816)"/>
<path d="M5.57153 11.6741C5.57153 11.2969 5.6701 10.7312 5.72153 10.4955L6.12868 9.5955L6.7801 8.60979L11.4901 7.52979L11.9787 9.91264C11.533 9.63572 11.0275 9.46965 10.5044 9.42836C9.94725 9.42836 9.86582 10.0626 9.85725 10.2941V16.1912C9.85725 17.7684 11.1215 18.5655 11.7858 18.7841C5.91439 17.7898 5.57153 12.8698 5.57153 11.6741Z" fill="url(#paint1_linear_31_7816)"/>
<path d="M17.1429 8.48592C17.1429 10.3845 15.4286 11.1431 14.5286 11.1431C13.7743 11.1431 12.27 10.4488 11.0229 9.75021C9.77146 9.05164 8.79432 8.57164 8.34432 8.57164C6.84432 8.57164 6.28289 9.75878 5.71289 10.5216C6.90432 5.71735 10.9157 5.14307 12.6 5.14307C14.2843 5.14307 17.1429 6.11164 17.1429 8.48592Z" fill="url(#paint2_linear_31_7816)"/>
</g>
<defs>
<linearGradient id="paint0_linear_31_7816" x1="17.1299" y1="15.5058" x2="9.49274" y2="15.5058" gradientUnits="userSpaceOnUse">
<stop stop-color="#6CDBF5"/>
<stop offset="0.27" stop-color="#377EF2"/>
<stop offset="0.71" stop-color="#1E4DA1"/>
<stop offset="0.91" stop-color="#04145E"/>
</linearGradient>
<linearGradient id="paint1_linear_31_7816" x1="8.77725" y1="7.52979" x2="8.77725" y2="18.8141" gradientUnits="userSpaceOnUse">
<stop offset="0.11" stop-color="#330665"/>
<stop offset="0.5" stop-color="#392388"/>
<stop offset="0.71" stop-color="#424BD2"/>
<stop offset="0.92" stop-color="#88BFFD"/>
</linearGradient>
<linearGradient id="paint2_linear_31_7816" x1="17.1429" y1="8.52878" x2="5.88861" y2="8.46449" gradientUnits="userSpaceOnUse">
<stop stop-color="#C767ED"/>
<stop offset="0.15" stop-color="#82018F"/>
<stop offset="0.71" stop-color="#FC5E8E"/>
<stop offset="1" stop-color="#F8AAD5"/>
</linearGradient>
<clipPath id="clip0_31_7816">
<rect width="24" height="24" fill="white"/>
</clipPath>
</defs>
</svg>

<svg xmlns="http://www.w3.org/2000/svg" width="24" height="24" fill="none" viewBox="0 0 24 24"><g clip-path="url(#a)"><path fill="#F0F3FA" d="M0 0h24v24H0z"/><path fill="url(#b)" d="M10.521 14.572c-.745 0-.801-.712-.737-1.072l-.926-.309-.728 1.68.441 1.23 2.216 2.396.87.257c.129.035.472.103.771.103 3.579 0 4.728-2.198 4.71-3.368a2 2 0 0 0-.017-.206c-.355-2.314-2.078-2.426-2.515-2.426a2.2 2.2 0 0 0-1.106.266c-2.443 1.166-2.803 1.449-2.979 1.449"/><path fill="url(#c)" d="M5.572 11.674c0-.377.098-.943.15-1.178l.407-.9.651-.986 4.71-1.08.489 2.383a3.3 3.3 0 0 0-1.475-.485c-.557 0-.638.635-.647.866v5.897c0 1.577 1.265 2.375 1.929 2.593-5.872-.994-6.214-5.914-6.214-7.11"/><path fill="url(#d)" d="M17.143 8.486c0 1.898-1.714 2.657-2.614 2.657-.755 0-2.259-.694-3.506-1.393-1.252-.698-2.229-1.178-2.679-1.178-1.5 0-2.061 1.187-2.631 1.95 1.191-4.805 5.203-5.379 6.887-5.379s4.543.969 4.543 3.343"/></g><defs><linearGradient id="b" x1="17.13" x2="9.493" y1="15.506" y2="15.506" gradientUnits="userSpaceOnUse"><stop stop-color="#6CDBF5"/><stop offset=".27" stop-color="#377EF2"/><stop offset=".71" stop-color="#1E4DA1"/><stop offset=".91" stop-color="#04145E"/></linearGradient><linearGradient id="c" x1="8.777" x2="8.777" y1="7.53" y2="18.814" gradientUnits="userSpaceOnUse"><stop offset=".11" stop-color="#330665"/><stop offset=".5" stop-color="#392388"/><stop offset=".71" stop-color="#424BD2"/><stop offset=".92" stop-color="#88BFFD"/></linearGradient><linearGradient id="d" x1="17.143" x2="5.889" y1="8.529" y2="8.464" gradientUnits="userSpaceOnUse"><stop stop-color="#C767ED"/><stop offset=".15" stop-color="#82018F"/><stop offset=".71" stop-color="#FC5E8E"/><stop offset="1" stop-color="#F8AAD5"/></linearGradient><clipPath id="a"><path fill="#fff" d="M0 0h24v24H0z"/></clipPath></defs></svg>
